X: 34653
T: Road To Boston
R: polka
M: 2/4
K: Dmajor
f2 fe/f/|gf ed|cd e/f/e/c/|dA FA|
f3 e/f/|gf e/f/e/d/|cd ec|d>A:|
a3 ^g/a/|ba g/a/g/f/|g3 f/g/|ag gf/e/|
f2 fe/f/|gf ed|cA e/d/c|d2:|

